src/assets/images/pools-icon.svg

<svg width="37" height="37" viewBox="0 0 37 37" fill="none" xmlns="http://www.w3.org/2000/svg">
<path d="M16.1875 17.3438C20.6576 17.3438 24.2812 13.7201 24.2812 9.25C24.2812 4.77995 20.6576 1.15625 16.1875 1.15625C11.7174 1.15625 8.09375 4.77995 8.09375 9.25C8.09375 13.7201 11.7174 17.3438 16.1875 17.3438Z" fill="#0000FF"/>
<path d="M26.5938 17.3438C24.7643 17.3438 22.9759 17.8863 21.4547 18.9027C19.9336 19.9191 18.748 21.3637 18.0479 23.0539C17.3478 24.7441 17.1646 26.604 17.5215 28.3983C17.8784 30.1927 18.7594 31.8409 20.053 33.1345C21.3467 34.4281 22.9948 35.3091 24.7892 35.666C26.5835 36.0229 28.4434 35.8397 30.1336 35.1396C31.8238 34.4395 33.2684 33.2539 34.2848 31.7328C35.3013 30.2116 35.8438 28.4232 35.8438 26.5938C35.8438 24.1405 34.8692 21.7877 33.1345 20.053C31.3998 18.3183 29.047 17.3438 26.5938 17.3438ZM30.0625 27.75H27.75V30.0625C27.75 30.3692 27.6282 30.6633 27.4113 30.8801C27.1945 31.0969 26.9004 31.2188 26.5938 31.2188C26.2871 31.2188 25.993 31.0969 25.7762 30.8801C25.5593 30.6633 25.4375 30.3692 25.4375 30.0625V27.75H23.125C22.8183 27.75 22.5242 27.6282 22.3074 27.4113C22.0906 27.1945 21.9688 26.9004 21.9688 26.5938C21.9688 26.2871 22.0906 25.993 22.3074 25.7762C22.5242 25.5593 22.8183 25.4375 23.125 25.4375H25.4375V23.125C25.4375 22.8183 25.5593 22.5242 25.7762 22.3074C25.993 22.0906 26.2871 21.9688 26.5938 21.9688C26.9004 21.9688 27.1945 22.0906 27.4113 22.3074C27.6282 22.5242 27.75 22.8183 27.75 23.125V25.4375H30.0625C30.3692 25.4375 30.6633 25.5593 30.8801 25.7762C31.0969 25.993 31.2188 26.2871 31.2188 26.5938C31.2188 26.9004 31.0969 27.1945 30.8801 27.4113C30.6633 27.6282 30.3692 27.75 30.0625 27.75Z" fill="#0000FF"/>
<path d="M15.0312 26.5938C15.0369 24.0549 15.878 21.5886 17.4247 19.5753C17.0142 19.6257 16.6011 19.6527 16.1875 19.6562C14.5376 19.6544 12.9118 19.2603 11.4442 18.5064C9.97661 17.7525 8.70932 16.6604 7.74687 15.3203C5.71775 16.6974 4.05634 18.5499 2.90757 20.7165C1.7588 22.883 1.15754 25.2977 1.15625 27.75V30.0625C1.15625 31.5958 1.76534 33.0663 2.84954 34.1505C3.38638 34.6873 4.0237 35.1131 4.72511 35.4037C5.42652 35.6942 6.1783 35.8438 6.9375 35.8438H19.6562C18.2202 34.7667 17.0547 33.3702 16.2519 31.7647C15.4492 30.1591 15.0312 28.3888 15.0312 26.5938Z" fill="#0000FF"/>
</svg>

<svg xmlns="http://www.w3.org/2000/svg" width="37" height="37" fill="none" viewBox="0 0 37 37"><path fill="#00f" d="M16.188 17.344a8.094 8.094 0 1 0 0-16.188 8.094 8.094 0 0 0 0 16.188m10.406 0a9.25 9.25 0 1 0 0 18.5 9.25 9.25 0 0 0 0-18.5m3.468 10.406H27.75v2.313a1.156 1.156 0 1 1-2.312 0V27.75h-2.313a1.156 1.156 0 1 1 0-2.312h2.313v-2.313a1.156 1.156 0 1 1 2.312 0v2.313h2.313a1.156 1.156 0 1 1 0 2.312"/><path fill="#00f" d="M15.031 26.594a11.56 11.56 0 0 1 2.394-7.019q-.616.076-1.238.081a10.4 10.4 0 0 1-8.44-4.336 15.03 15.03 0 0 0-6.59 12.43v2.313a5.78 5.78 0 0 0 5.78 5.78h12.72a11.56 11.56 0 0 1-4.626-9.25"/></svg>
